X: 30
T:Missa Pange lingua / Gloria
N: Derived from Jos0403b-Missa_Pange_lingua-Gloria.krn
C: Josquin des Prez
%%abc-version 2.0
%%abcx-abcm2ps-target-version 5.9.1 (29 Sep 2008)
%%abc-creator hum2abc beta
%%abcx-conversion-date 2019/02/12 16:15:39
%%abc-edited-by Jesse Rodin
%%abc-edited-by Will Watson 01/09/2011; Victoria Chang 04/09/2011
%%abcx-initial-encoding-date 2011/04/09/
%%humdrum-veritas 2846581438
%%humdrum-veritas-data 4124897367
%%linebreak <none>
%%barnumbers 0
L: 1/4
M: 3/1
Q: 1/2=120
%%staves [1 2 3 4]
V: 1 clef=treble
V: 2 clef=treble-8
V: 3 clef=treble-8
V: 4 clef=bass
K: C
[V:1] z12 | 
[V:2] z12 | 
[V:3] E4E4F4 | 
[V:4] z12 | 
[V:1] z12 | 
[V:2] z12 | 
[V:3] E8D2G2 | 
[V:4] A,,4A,,4B,,4 | 
[V:1] z12 | 
[V:2] z12 | 
[V:3] A2c4BAB3A | 
[V:4] A,,8G,,4 | 
[V:1] z12 | 
[V:2] z12 | 
[V:3] Bcd4G2A2B2 | 
[V:4] G,4F,2E,2D,4 | 
[V:1] z12 | 
[V:2] z12 | 
[V:3] c4z2G2A2B2 | 
[V:4] C,8z2G,,2 | 
[V:1] z12 | 
[V:2] z12 | 
[V:3] c2d3cc4B2 | 
[V:4] A,,2B,,2C,2E,2D,4 | 
[V:1] E4E4F4 | 
[V:2] z12 | 
[V:3] c8F4 | 
[V:4] C,8z4 | 
[V:1] E8D2G2 | 
[V:2] A4A4B4 | 
[V:3] c8z4 | 
[V:4] z12 | 
[V:1] A2c4BAB3A | 
[V:2] A8G4 | 
[V:3] z12 | 
[V:4] z12 | 
[V:1] Bcd4G2A2B2 | 
[V:2] g4f2e2d4 | 
[V:3] z12 | 
[V:4] z12 | 
[V:1] c4z2G2A2B2 | 
[V:2] c8z2G2 | 
[V:3] z12 | 
[V:4] z12 | 
[V:1] c2d3cc4B2 | 
[V:2] A2B2c2e2d4 | 
[V:3] z12 | 
[V:4] z12 | 
[V:1] c4z2G2A2G2 | 
[V:2] c8A2B2 | 
[V:3] z4z2C2F2E2 | 
[V:4] z12 | 
[V:1] E4z2G2A2G2 | 
[V:2] c4z2c2A2B2 | 
[V:3] C8z4 | 
[V:4] z4z2C,2F,2E,2 | 
[V:1] E2G3FE2D4 | 
[V:2] c4z2g2a2g2 | 
[V:3] z2E2E2E2F2G2 | 
[V:4] C,8z4 | 
[V:1] z4z2G2A2G2 | 
[V:2] e2g3fe2d4 | 
[V:3] C8z4 | 
[V:4] z2E,2E,2E,2F,2G,2 | 
[V:1] E2G3FE2D4 | 
[V:2] z4z2g2a2g2 | 
[V:3] z2E4E2F2G2 | 
[V:4] C,8z4 | 
[V:1] z4z2G2A2G2 | 
[V:2] e2g3fe2d4 | 
[V:3] C8z4 | 
[V:4] z2E,4E,2F,2G,2 | 
[V:1] E2G3FE2D2d2 | 
[V:2] z4z2g2a2g2 | 
[V:3] z2E2E2E2F2G2 | 
[V:4] C,8z4 | 
[V:1] c2e3dc4B2 | 
[V:2] e2g3fe2d4 | 
[V:3] C8z4 | 
[V:4] z2E,2E,2E,2F,2G,2 | 
[V:1] c4z2c2d2c2 | 
[V:2] c8z2c2 | 
[V:3] z12 | 
[V:4] C,8z4 | 
[V:1] A2c3BAGA2G2- | 
[V:2] d2c2A2c4B2 | 
[V:3] z12 | 
[V:4] z12 | 
[V:1] G2^F2G4z4 | 
[V:2] A4G4z4 | 
[V:3] z2c2d2c2A2c2- | 
[V:4] z4z2C,2D,2C,2 | 
[V:1] z12 | 
[V:2] z12 | 
[V:3] cBAGA2G4^F2 | 
[V:4] A,,2C,4B,,2A,,4 | 
[V:1] z12 | 
[V:2] z12 | 
[V:3] G4z2G2G2G2- | 
[V:4] G,,8C,4 | 
[V:1] z12 | 
[V:2] z12 | 
[V:3] G2G2A2A2B3A | 
[V:4] C,2C,4C,2D,2D,2 | 
[V:1] G3GG2G2A2A2 | 
[V:2] z4c3cc2c2 | 
[V:3] GFG4E2F2C2 | 
[V:4] E,4C,3B,,A,,4 | 
[V:1] B4G2c4BA | 
[V:2] d2d2e4c4 | 
[V:3] G4z2E2F2C2 | 
[V:4] G,,4C,3B,,A,,4 | 
[V:1] B12 | 
[V:2] d3cd2e4d2 | 
[V:3] G12 | 
[V:4] G,,8G,3F, | 
[V:1] z2G2A2A2B4 | 
[V:2] e4z2c2d2d2 | 
[V:3] z12 | 
[V:4] E,D,C,3B,,A,,2G,,4 | 
[V:1] G2c4B2A4 | 
[V:2] e4c2g4f2 | 
[V:3] z12 | 
[V:4] C,4z4z4 | 
[V:1] G4z2d2c2B2 | 
[V:2] e4d4z2g2 | 
[V:3] z12 | 
[V:4] z12 | 
[V:1] A2c3BA2GEF2 | 
[V:2] f2e2d2f2ecd2 | 
[V:3] z12 | 
[V:4] z12 | 
[V:1] E4z4z2A2 | 
[V:2] c2g2f2e3cd2 | 
[V:3] z4z4z2A2 | 
[V:4] z2C,2D,2E,2F,4 | 
[V:1] G2E2F4E4 | 
[V:2] e4z4z2e2 | 
[V:3] B2c2d4c4 | 
[V:4] E,4z4z2C,2 | 
[V:1] z4z2A2G2E2 | 
[V:2] f2e3cd2e4 | 
[V:3] z4z2A2B2c2 | 
[V:4] D,2E,2F,4E,4 | 
[V:1] F4E4z4 | 
[V:2] z4z2e2f2e2- | 
[V:3] d4c4z4 | 
[V:4] z4z2C,2D,2E,2 | 
[V:1] z2A2G2E2F4 | 
[V:2] ecd2e4z4 | 
[V:3] z2A2B2c2d4 | 
[V:4] F,4E,4z2D,2 | 
[V:1] E4z2G2A2B2 | 
[V:2] z2c2d2e2f4 | 
[V:3] c2A2B2G2d4 | 
[V:4] A,2A,2G,3F,D,4 | 
[V:1] c4B2G2A2B2 | 
[V:2] e2c2d2e2f4 | 
[V:3] c2A2B4d4 | 
[V:4] A,4G,3F,D,4 | 
[V:1] c4B4z4 | 
[V:2] e2c2d2e2f4 | 
[V:3] c2A2B2G2d4 | 
[V:4] A,4G,4z4 | 
[V:1] z2G2A2B2c4 | 
[V:2] e4z4z2c2 | 
[V:3] c4z4z2A2 | 
[V:4] z2C,2F,2D,2A,4 | 
[V:1] B2G2A2B2c4 | 
[V:2] d2e2f4e4- | 
[V:3] B2c3Ad2cBA2 | 
[V:4] G,2C,2F,2D,2A,4 | 
[V:1] B12 ||  
[V:2] e12 ||  
[V:3] G12 ||  
[V:4] E,12 ||  
[V:1] [M:2/1]B8 | 
[V:2] [M:2/1]z8 | 
[V:3] [M:2/1]z8 | 
[V:4] [M:2/1]z8 | 
[V:1] c4c4 | 
[V:2] z8 | 
[V:3] z8 | 
[V:4] z8 | 
[V:1] B4B4 | 
[V:2] e8 | 
[V:3] z8 | 
[V:4] z8 | 
[V:1] A3Bc2d2- | 
[V:2] f4f4 | 
[V:3] z8 | 
[V:4] z8 | 
[V:1] d2^cBc4 | 
[V:2] e4e4 | 
[V:3] A8 | 
[V:4] z8 | 
[V:1] d8 | 
[V:2] d3ef2g2- | 
[V:3] _B4_B4 | 
[V:4] z8 | 
[V:1] z8 | 
[V:2] g2^fe^f4 | 
[V:3] A4A4 | 
[V:4] D,8 | 
[V:1] z8 | 
[V:2] g8 | 
[V:3] G3AB2c2- | 
[V:4] E,4E,4 | 
[V:1] z8 | 
[V:2] z8 | 
[V:3] c2BAB4 | 
[V:4] D,4D,4 | 
[V:1] z8 | 
[V:2] z8 | 
[V:3] c8- | 
[V:4] C,3D,E,2F,2- | 
[V:1] z4G4 | 
[V:2] z8 | 
[V:3] c8 | 
[V:4] F,2E,D,E,4 | 
[V:1] c4c4 | 
[V:2] z4e4 | 
[V:3] z4c4 | 
[V:4] A,,4A,4 | 
[V:1] c4B4 | 
[V:2] e4e4 | 
[V:3] A4B4 | 
[V:4] A,4G,4 | 
[V:1] A8 | 
[V:2] f8 | 
[V:3] c4d4 | 
[V:4] F,4D,4 | 
[V:1] G8- | 
[V:2] e8 | 
[V:3] B2c4BA | 
[V:4] E,6F,2 | 
[V:1] G8 | 
[V:2] d8- | 
[V:3] B8- | 
[V:4] G,8 | 
[V:1] z8 | 
[V:2] d8 | 
[V:3] B8 | 
[V:4] z4G,,4 | 
[V:1] z8 | 
[V:2] z8 | 
[V:3] z4G4 | 
[V:4] C,6C,2 | 
[V:1] z8 | 
[V:2] z8 | 
[V:3] A4A4 | 
[V:4] C,4D,4 | 
[V:1] z8 | 
[V:2] z8 | 
[V:3] G3ABcd2- | 
[V:4] E,3F,G,2F,2- | 
[V:1] z8 | 
[V:2] z8 | 
[V:3] dcc3BBA | 
[V:4] F,2E,2D,4 | 
[V:1] z8 | 
[V:2] z8 | 
[V:3] c8 | 
[V:4] C,8 | 
[V:1] z4c4- | 
[V:2] z4g4- | 
[V:3] z4c4- | 
[V:4] z4C,4- | 
[V:1] c2c2c4 | 
[V:2] g2g2g4 | 
[V:3] c2c2c4 | 
[V:4] C,2C,2C,4 | 
[V:1] B6B2 | 
[V:2] g6g2 | 
[V:3] d6d2 | 
[V:4] G,6G,2 | 
[V:1] B2B2B4 | 
[V:2] g2g2g4 | 
[V:3] d2d2d4 | 
[V:4] G,2G,2G,4 | 
[V:1] A3GABc2- | 
[V:2] f6ed | 
[V:3] d4c3B | 
[V:4] D,3E,F,G,A,2- | 
[V:1] cBA4^G2 | 
[V:2] e2f2e4 | 
[V:3] c2d2B4 | 
[V:4] A,2D,2E,4 | 
[V:1] A4z2c2 | 
[V:2] c6A2 | 
[V:3] A8 | 
[V:4] A,,8- | 
[V:1] A2c4BA | 
[V:2] A8 | 
[V:3] c4A2c2- | 
[V:4] A,,8 | 
[V:1] G2A2B2E2 | 
[V:2] z8 | 
[V:3] c2BAG2A2 | 
[V:4] z8 | 
[V:1] G3ABcB2- | 
[V:2] z8 | 
[V:3] B2E2GABc | 
[V:4] z8 | 
[V:1] BAc4BA | 
[V:2] z8 | 
[V:3] d2e4dc | 
[V:4] z8 | 
[V:1] G8 | 
[V:2] E2G2E2G2- | 
[V:3] B8 | 
[V:4] z2E,2G,2E,2 | 
[V:1] z8 | 
[V:2] GEe3ddc | 
[V:3] z8 | 
[V:4] G,4F,4 | 
[V:1] z2E2G2E2 | 
[V:2] e8 | 
[V:3] E2G2E2G2- | 
[V:4] E,8 | 
[V:1] G4F4 | 
[V:2] z8 | 
[V:3] GEe3ddc | 
[V:4] z8 | 
[V:1] E2G2A2B2 | 
[V:2] z2e2c2d2 | 
[V:3] e4z4 | 
[V:4] z8 | 
[V:1] c3BA2^G2 | 
[V:2] e3dc2B2 | 
[V:3] z8 | 
[V:4] z8 | 
[V:1] A4z4 | 
[V:2] A4z4 | 
[V:3] z2c2d2e2 | 
[V:4] z2A,2F,2G,2 | 
[V:1] z8 | 
[V:2] z4z2e2 | 
[V:3] f3ed2^c2 | 
[V:4] A,3G,F,2E,2 | 
[V:1] z4z2A2 | 
[V:2] f3ed2c2 | 
[V:3] d4z4 | 
[V:4] D,4z2F,2 | 
[V:1] B3AG2F2 | 
[V:2] B4z4 | 
[V:3] z4z2d2 | 
[V:4] G,3F,E,2D,2 | 
[V:1] E2G4G2 | 
[V:2] z2e2e4 | 
[V:3] e3dc2B2 | 
[V:4] C,3D,E,4 | 
[V:1] A4c4 | 
[V:2] c4z2A2 | 
[V:3] A2c4c2 | 
[V:4] z2A,,2A,4 | 
[V:1] B4A4 | 
[V:2] B2G2d4 | 
[V:3] d4f4 | 
[V:4] G,4z2D,2 | 
[V:1] G3ABcdB | 
[V:2] z8 | 
[V:3] e4d4 | 
[V:4] E,2C,2G,4 | 
[V:1] c2G2A2c2- | 
[V:2] e4f4 | 
[V:3] c6A2 | 
[V:4] z2C,2F,3G, | 
[V:1] cBA3^GG^F | 
[V:2] e2f2e4 | 
[V:3] c2d2B4 | 
[V:4] A,2D,2E,4 | 
[V:1] A4z2E2 | 
[V:2] c6A2 | 
[V:3] A8 | 
[V:4] A,,8- | 
[V:1] A3GF2E2 | 
[V:2] A8 | 
[V:3] z4z2c2 | 
[V:4] A,,8 | 
[V:1] D8 | 
[V:2] z8 | 
[V:3] d3cB2A2 | 
[V:4] z4z2D,2 | 
[V:1] z8 | 
[V:2] z4z2d2 | 
[V:3] G4z4 | 
[V:4] G,3F,E,2D,2 | 
[V:1] z4z2G2 | 
[V:2] e3dc2B2 | 
[V:3] z8 | 
[V:4] C,4z2E,2 | 
[V:1] A2B2c4 | 
[V:2] A4z2c2 | 
[V:3] z4z2A2 | 
[V:4] F,2D,2A,4 | 
[V:1] B2G2A4 | 
[V:2] d2e2f4 | 
[V:3] B2B2c2F2 | 
[V:4] G,4F,2D,2 | 
[V:1] G2E2F4 | 
[V:2] e2c2d4 | 
[V:3] G4A4- | 
[V:4] E,4D,3C, | 
[V:1] E4z2G2 | 
[V:2] c2A2B4 | 
[V:3] A4E4 | 
[V:4] A,,4z2E,2 | 
[V:1] A2B2c4 | 
[V:2] A4z2c2 | 
[V:3] z4z2A2 | 
[V:4] F,2D,2A,4 | 
[V:1] B2G2A4 | 
[V:2] d2e2f4 | 
[V:3] B2B2c2F2 | 
[V:4] G,4F,2D,2 | 
[V:1] G2E2F4 | 
[V:2] e2c2d4 | 
[V:3] G4A4- | 
[V:4] E,4D,4 | 
[V:1] E8- | 
[V:2] c2A2c4 | 
[V:3] A4A4 | 
[V:4] A,,8 | 
[V:1] E8- | 
[V:2] B8- | 
[V:3] G6E2 | 
[V:4] E,8- | 
[V:1] E8 |]  
[V:2] B8 |]  
[V:3] E8 |]  
[V:4] E,8 |]  



